packages/kronos-fna-icons/src/add.svg

<svg version="1.1" xmlns="http://www.w3.org/2000/svg" width="20" height="20" viewBox="0 0 20 20">
<title>add</title>
<path d="M19.375 7.5h-6.875v-6.875c0-0.345-0.28-0.625-0.625-0.625h-3.75c-0.345 0-0.625 0.28-0.625 0.625v6.875h-6.875c-0.345 0-0.625 0.28-0.625 0.625v3.75c0 0.345 0.28 0.625 0.625 0.625h6.875v6.875c0 0.345 0.28 0.625 0.625 0.625h3.75c0.345 0 0.625-0.28 0.625-0.625v-6.875h6.875c0.345 0 0.625-0.28 0.625-0.625v-3.75c0-0.345-0.28-0.625-0.625-0.625z"></path>
</svg>

<svg viewBox="0 0 20 20" xmlns="http://www.w3.org/2000/svg">
    <title>add</title>
    <path d="M19.375 7.5H12.5V.625A.625.625 0 0 0 11.875 0h-3.75A.625.625 0 0 0 7.5.625V7.5H.625A.625.625 0 0 0 0 8.125v3.75c0 .345.28.625.625.625H7.5v6.875c0 .345.28.625.625.625h3.75c.345 0 .625-.28.625-.625V12.5h6.875c.345 0 .625-.28.625-.625v-3.75a.625.625 0 0 0-.625-.625z" />
</svg>
